src/catppuccin-macchiato-rosewater-cursors/pencil_24.svg

<?xml version="1.0" encoding="UTF-8" standalone="no"?>
<svg
   id="svg2"
   width="24"
   height="24"
   version="1.1"
   sodipodi:docname="pencil_24.svg"
   inkscape:version="1.1.2 (0a00cf5339, 2022-02-04)"
   xmlns:inkscape="http://www.inkscape.org/namespaces/inkscape"
   xmlns:sodipodi="http://sodipodi.sourceforge.net/DTD/sodipodi-0.dtd"
   xmlns="http://www.w3.org/2000/svg"
   xmlns:svg="http://www.w3.org/2000/svg">
  <sodipodi:namedview
     id="namedview11"
     pagecolor="#ffffff"
     bordercolor="#666666"
     borderopacity="1.0"
     inkscape:pageshadow="2"
     inkscape:pageopacity="0.0"
     inkscape:pagecheckerboard="0"
     showgrid="false"
     inkscape:zoom="19.88"
     inkscape:cx="16.046278"
     inkscape:cy="15.995976"
     inkscape:window-width="936"
     inkscape:window-height="1020"
     inkscape:window-x="969"
     inkscape:window-y="45"
     inkscape:window-maximized="1"
     inkscape:current-layer="svg2" />
  <defs
     id="defs4">
    <filter
       id="filter874"
       style="color-interpolation-filters:sRGB"
       width="1.12"
       height="1.12"
       x="-0.059999999"
       y="-0.059999999">
      <feGaussianBlur
         id="feGaussianBlur876"
         stdDeviation=".55" />
    </filter>
    <filter
       id="filter826"
       style="color-interpolation-filters:sRGB"
       width="1.1440051"
       height="1.1440032"
       x="-0.072002567"
       y="-0.072001621">
      <feGaussianBlur
         id="feGaussianBlur828"
         stdDeviation=".66" />
    </filter>
    <filter
       inkscape:collect="always"
       style="color-interpolation-filters:sRGB"
       id="filter1278"
       x="-0.023061697"
       y="-0.023061699"
       width="1.0461234"
       height="1.0461234">
      <feGaussianBlur
         inkscape:collect="always"
         stdDeviation="0.16334608"
         id="feGaussianBlur1280" />
    </filter>
  </defs>
  <path
     style="color:#000000;opacity:0.1;fill:#000000;fill-opacity:1;stroke-linecap:round;stroke-linejoin:round;-inkscape-stroke:none;filter:url(#filter1278)"
     d="M 16.851963,3.7925693 14.79337,5.851163 a 1.0001,1.0001 0 0 0 0,0.5878906 1.0001,1.0001 0 0 0 -0.587891,0 L 5.9691511,14.67538 a 1.0001,1.0001 0 0 0 -0.2539063,0.431641 l -1.1757812,4.117187 a 1.0001,1.0001 0 0 0 1.2363281,1.236328 L 9.8929792,19.284755 A 1.0001,1.0001 0 0 0 10.32462,19.030849 l 8.236328,-8.236328 a 1.0001,1.0001 0 0 0 0.269531,-0.58789 1.0001,1.0001 0 0 0 0.318359,0 l 2.058594,-2.058593 a 1.0001,1.0001 0 0 0 0,-1.4140625 L 18.266026,3.7925693 a 1.0001,1.0001 0 0 0 -1.414063,0 z M 17.558995,5.913663 19.086338,7.4410067 18.441807,8.085538 16.914463,6.5581942 Z m -2.646485,2.6464844 1.527344,1.5273436 -7.3457029,7.345702 -2.1386719,0.611328 0.6113281,-2.138672 z"
     id="path1240" />
  <path
     style="color:#000000;fill:#24273A;stroke-linecap:round;stroke-linejoin:round;-inkscape-stroke:none;fill-opacity:1"
     d="m 16.351562,3.2929688 -2.058593,2.0585937 a 1.0001,1.0001 0 0 0 0,0.5878906 1.0001,1.0001 0 0 0 -0.587891,0 L 5.46875,14.175781 a 1.0001,1.0001 0 0 0 -0.2539063,0.431641 l -1.1757812,4.117187 a 1.0001,1.0001 0 0 0 1.2363281,1.236328 L 9.3925781,18.785156 A 1.0001,1.0001 0 0 0 9.8242188,18.53125 l 8.2363282,-8.236328 a 1.0001,1.0001 0 0 0 0.269531,-0.5878907 1.0001,1.0001 0 0 0 0.318359,0 l 2.058594,-2.0585938 a 1.0001,1.0001 0 0 0 0,-1.4140625 L 17.765625,3.2929688 a 1.0001,1.0001 0 0 0 -1.414063,0 z m 0.707032,2.1210937 1.527343,1.5273437 -0.644531,0.6445313 -1.527344,-1.5273438 z M 14.412109,8.0605469 15.939453,9.5878906 8.59375,16.933594 6.4550781,17.544922 7.0664062,15.40625 Z"
     id="path1180" />
  <path
     id="path825"
     style="fill:#F4DBD6;fill-opacity:1;stroke:none;stroke-width:1.88341;stroke-linecap:round;stroke-linejoin:round;stroke-miterlimit:4;stroke-dasharray:none;stroke-opacity:1"
     d="m 17.058595,3.9999988 -2.058106,2.0581056 2.941407,2.9414069 2.058106,-2.058106 z M 14.411622,6.6469717 6.1762697,14.882324 5,19 9.117676,17.823731 17.353028,9.588378 Z" />
</svg>

<svg xmlns="http://www.w3.org/2000/svg" width="24" height="24">
    <defs>
        <filter id="a" width="1.046" height="1.046" x="-.023" y="-.023" style="color-interpolation-filters:sRGB">
            <feGaussianBlur stdDeviation=".163"/>
        </filter>
    </defs>
    <path d="M16.852 3.793 14.793 5.85a1 1 0 0 0 0 .588 1 1 0 0 0-.588 0L5.97 14.675a1 1 0 0 0-.254.432L4.54 19.224a1 1 0 0 0 1.237 1.237l4.117-1.176a1 1 0 0 0 .432-.254l8.236-8.236a1 1 0 0 0 .27-.588 1 1 0 0 0 .318 0l2.058-2.059a1 1 0 0 0 0-1.414l-2.941-2.941a1 1 0 0 0-1.414 0m.707 2.12 1.527 1.528-.644.645-1.528-1.528ZM14.913 8.56l1.527 1.527-7.346 7.346-2.139.612.612-2.14z" style="color:#000;opacity:.1;fill:#000;fill-opacity:1;stroke-linecap:round;stroke-linejoin:round;-inkscape-stroke:none;filter:url(#a)"/>
    <path d="m16.352 3.293-2.059 2.059a1 1 0 0 0 0 .587 1 1 0 0 0-.588 0L5.47 14.176a1 1 0 0 0-.254.431L4.04 18.725a1 1 0 0 0 1.236 1.236l4.118-1.176a1 1 0 0 0 .431-.254l8.237-8.236a1 1 0 0 0 .27-.588 1 1 0 0 0 .317 0l2.059-2.059a1 1 0 0 0 0-1.414l-2.941-2.941a1 1 0 0 0-1.414 0m.707 2.121 1.527 1.527-.645.645-1.527-1.527zm-2.647 2.647 1.527 1.527-7.345 7.346-2.139.61.611-2.138Z" style="color:#000;fill:#24273a;stroke-linecap:round;stroke-linejoin:round;-inkscape-stroke:none;fill-opacity:1"/>
    <path d="M17.059 4 15 6.058 17.942 9 20 6.94zm-2.647 2.647-8.236 8.235L5 19l4.118-1.176 8.235-8.236Z" style="fill:#f4dbd6;fill-opacity:1;stroke:none;stroke-width:1.88341;stroke-linecap:round;stroke-linejoin:round;stroke-miterlimit:4;stroke-dasharray:none;stroke-opacity:1"/>
</svg>
